assets/icons/18px/graphics-and-design.svg

<svg width="18" height="18" viewBox="0 0 18 18" fill="none" xmlns="http://www.w3.org/2000/svg">
<path d="M16.6185 8.41387C16.8137 8.21866 16.8172 7.89863 16.6262 7.69908C16.4352 7.49953 16.1222 7.49601 15.927 7.69122L16.6185 8.41387ZM11.1997 12.4185C11.0045 12.6137 11.001 12.9337 11.192 13.1333C11.383 13.3329 11.696 13.3364 11.8912 13.1412L11.1997 12.4185ZM11.8912 13.1412L16.6185 8.41387L15.927 7.69122L11.1997 12.4185L11.8912 13.1412Z" fill="white"/>
<path d="M10.3637 14.5232C10.3637 14.9912 9.50427 15.272 8.07197 15.0848C7.75792 15.0438 8.56897 14.8976 8.64489 14.5232C8.72082 14.1488 8.88642 13.9616 9.36104 13.9616C9.83566 13.9616 10.3637 14.2131 10.3637 14.5232Z" fill="white" stroke="white"/>
<path d="M6.00002 13.5C6.27616 13.5 6.50002 13.2761 6.50002 13C6.50002 12.7239 6.27616 12.5 6.00002 12.5V13.5ZM12.5 6.75C12.5 7.02614 12.7239 7.25 13 7.25C13.2761 7.25 13.5 7.02614 13.5 6.75H12.5ZM3.00002 3.5H12V2.5H3.00002V3.5ZM2.50002 12V4H1.50002V12H2.50002ZM6.00002 12.5H3.00002V13.5H6.00002V12.5ZM12.5 4V6.75H13.5V4H12.5ZM1.50002 12C1.50002 12.8284 2.17159 13.5 3.00002 13.5V12.5C2.72387 12.5 2.50002 12.2761 2.50002 12H1.50002ZM12 3.5C12.2761 3.5 12.5 3.72386 12.5 4H13.5C13.5 3.17157 12.8284 2.5 12 2.5V3.5ZM3.00002 2.5C2.17159 2.5 1.50002 3.17157 1.50002 4H2.50002C2.50002 3.72386 2.72387 3.5 3.00002 3.5V2.5Z" fill="white"/>
<path d="M8.01656 10.5L5.21959 7.54169C4.81718 7.11606 4.1251 7.11606 3.72268 7.54168L2.10747 9.25002" stroke="white" stroke-linecap="round" stroke-linejoin="round"/>
<path d="M13 7L11.7364 5.73634C11.3347 5.33464 10.6689 5.33789 10.2714 5.74348L6.83474 9.24998" stroke="white" stroke-linecap="round" stroke-linejoin="round"/>
</svg>

<svg width="18" height="18" fill="none" xmlns="http://www.w3.org/2000/svg"><path d="M16.619 8.414a.513.513 0 0 0 .007-.715.487.487 0 0 0-.699-.008l.692.723zm-5.42 4.005a.513.513 0 0 0-.007.714c.191.2.504.203.7.008l-.692-.723zm.692.722l4.728-4.727-.692-.723L11.2 12.42l.691.722z" fill="#fff"/><path d="M10.364 14.523c0 .468-.86.749-2.292.562-.314-.041.497-.187.573-.562.076-.374.241-.561.716-.561s1.003.251 1.003.561z" fill="#fff" stroke="#fff"/><path d="M6 13.5a.5.5 0 0 0 0-1v1zm6.5-6.75a.5.5 0 0 0 1 0h-1zM3 3.5h9v-1H3v1zM2.5 12V4h-1v8h1zm3.5.5H3v1h3v-1zM12.5 4v2.75h1V4h-1zm-11 8A1.5 1.5 0 0 0 3 13.5v-1a.5.5 0 0 1-.5-.5h-1zM12 3.5a.5.5 0 0 1 .5.5h1A1.5 1.5 0 0 0 12 2.5v1zm-9-1A1.5 1.5 0 0 0 1.5 4h1a.5.5 0 0 1 .5-.5v-1z" fill="#fff"/><path d="M8.017 10.5L5.22 7.542a1.037 1.037 0 0 0-1.497 0L2.107 9.25M13 7l-1.264-1.264a1.038 1.038 0 0 0-1.465.007L6.835 9.25" stroke="#fff" stroke-linecap="round" stroke-linejoin="round"/></svg>
